X: 2116
T:Baba Georgia
O:Macedonia
M:7/8
K:Bbm
f2 f2 f/e/d2|e2 e2 d/c/B2|c2 d2 d/c/B2 \
|1e2 B2 c/d/e2 :|2 e2B2 BB2 ||
|:c2 d2 d/c/B2|c2 d2 c/d/e2|\
c2 d2 d/c/B2|e2 B2 BB2:|
